cviceni/jak-obhajit-pisen/assets/img/icons/icon-razeni-2.svg

<svg xmlns="http://www.w3.org/2000/svg" viewBox="0 0 100 100"><path d="M9 61h10v.55l2-.1V61h10V39H9zm2-20h18v18H11zm50-2H39v22h22zm-2 20H41V41h18zm32-20H69v22h10v.45l2 .1V61h10zm-2 20H71V41h18zM25.77 79.33a31.23 31.23 0 0 0 2.13 2.4l1.43-1.4a29.48 29.48 0 0 1-2-2.25zm5.33 5.24a31 31 0 0 0 2.64 1.83l1.05-1.7a29.06 29.06 0 0 1-2.47-1.7zm-9.58-19.09l-2 .38a30.88 30.88 0 0 0 .8 3.14l1.92-.58a28.83 28.83 0 0 1-.72-2.94zm.32 7.52a31 31 0 0 0 1.49 2.84l1.72-1a29 29 0 0 1-1.4-2.66zm37.05 14.61l.61 1.9a31.06 31.06 0 0 0 3-1.14l-.81-1.83a29 29 0 0 1-2.8 1.07zM75 74.76l1.72 1a31 31 0 0 0 1.49-2.85l-1.82-.83A29 29 0 0 1 75 74.76zM37.53 88.39a30.92 30.92 0 0 0 3 1.14l.61-1.9a28.94 28.94 0 0 1-2.81-1.06zm40.25-20.04l1.92.57a30.94 30.94 0 0 0 .76-3.12l-2-.37a28.9 28.9 0 0 1-.68 2.92zM70.7 80.31l1.43 1.4a31.59 31.59 0 0 0 2.13-2.41l-1.56-1.25a29.25 29.25 0 0 1-2 2.26zm-26 10.24a31.12 31.12 0 0 0 3.19.38l.13-2a29.31 29.31 0 0 1-3-.36zm20.54-5.87l1.05 1.7a31.36 31.36 0 0 0 2.64-1.83L67.71 83a29.28 29.28 0 0 1-2.47 1.68zM52 88.93l.14 2a31.13 31.13 0 0 0 3.19-.39l-.34-2a29 29 0 0 1-2.99.39z"/></svg>

<svg id="help-icons" xmlns="http://www.w3.org/2000/svg" viewBox="0 0 100 100">
  <title>icon-razeni-2</title>
  <g id="help-razeni-2">
    <path d="M9,61H19c0,.18,0,.37,0,.55l2-.1c0-.15,0-.3,0-.45H31V39H9Zm2-20H29V59H11Z"/>
    <path d="M61,39H39V61H61ZM59,59H41V41H59Z"/>
    <path d="M91,39H69V61H79c0,.15,0,.3,0,.45l2,.1c0-.18,0-.37,0-.55H91ZM89,59H71V41H89Z"/>
    <g>
      <path d="M25.77,79.33a31.23,31.23,0,0,0,2.13,2.4l1.43-1.4a29.48,29.48,0,0,1-2-2.25Z"/>
      <path d="M31.1,84.57a31,31,0,0,0,2.64,1.83l1.05-1.7A29.06,29.06,0,0,1,32.32,83Z"/>
      <path d="M21.52,65.48l-2,.38A30.88,30.88,0,0,0,20.32,69l1.92-.58A28.83,28.83,0,0,1,21.52,65.48Z"/>
      <path d="M21.84,73a31,31,0,0,0,1.49,2.84l1.72-1a29,29,0,0,1-1.4-2.66Z"/>
      <path d="M58.89,87.61l.61,1.9a31.06,31.06,0,0,0,3-1.14l-.81-1.83A29,29,0,0,1,58.89,87.61Z"/>
      <path d="M75,74.76l1.72,1a31,31,0,0,0,1.49-2.85l-1.82-.83A29,29,0,0,1,75,74.76Z"/>
      <path d="M37.53,88.39a30.92,30.92,0,0,0,3,1.14l.61-1.9a28.94,28.94,0,0,1-2.81-1.06Z"/>
      <path d="M77.78,68.35l1.92.57a30.94,30.94,0,0,0,.76-3.12l-2-.37A28.9,28.9,0,0,1,77.78,68.35Z"/>
      <path d="M70.7,80.31l1.43,1.4a31.59,31.59,0,0,0,2.13-2.41l-1.56-1.25A29.25,29.25,0,0,1,70.7,80.31Z"/>
      <path d="M44.7,90.55a31.12,31.12,0,0,0,3.19.38l.13-2a29.31,29.31,0,0,1-3-.36Z"/>
      <path d="M65.24,84.68l1.05,1.7a31.36,31.36,0,0,0,2.64-1.83L67.71,83A29.28,29.28,0,0,1,65.24,84.68Z"/>
      <path d="M52,88.93l.14,2a31.13,31.13,0,0,0,3.19-.39l-.34-2A29,29,0,0,1,52,88.93Z"/>
    </g>
  </g>
</svg>
